!!!SOCIAL_FUNCTION:	bird dance songs
!!!PDT:	1956
!!!OTL: No_88_Bird_Dance_Song_(k).krn
!!!LANG: Non-Tone
!!!LING_GROUP: Muskogean
!!!REG: Florida
**kern
*staff1
=1-
=
*clefF4
*k[b-e-a-]
*M3/4
2B-\
4B-\
=2
4F\
4F\
4c\
=3||
*M2/4
4B-\
4r
=4||
*M3/4
2B-\
4B-\
=5
4F\
4F\
8.B-\L
16A-\Jk
=6||
*M2/4
4A-\
4r
=7
8B-\L
8B-\J
(8.A-\L
16F\Jk)
=8
4..F\
16E-\
=9
8E-\L
8E-\J
8.E-\L
16E-\Jk
=10
4E-\
4r
=11||
*M3/4
4B-\
4..F\
16E-\
=12||
*M2/4
4E-\
4r
=13
4E-\
8BB-/L
8BB-/J
=14
4BB-/
4r
=15
8E-\L
8E-\J
8.E-\L
16E-\Jk
=16
2E-\
=17
*M3/4
4B-\
4..F\
16E-\
=18||
*M2/4
2E-\
=19
4E-\
4BB-/
=20
4BB-/
4r
=21
8E-\L
8E-\J
8.E-\L
16E-\Jk
=22
2E-\
==:|!
*-
